X:1
T:Title
%%score { ( 1 4 ) | ( 2 3 ) }
L:1/8
Q:1/4=100
M:4/4
K:F
V:1 treble nm="Grand Piano"
V:4 treble 
V:2 bass 
V:3 bass 
V:1
 [FAc]2 [FAc]2 [FAc]2 [FAc]2 | [EGBc]2 [EGBc]2 [EGBc]2 [GBc]2 | [A,CF]4 [CFA]4 | %3
w: J.~Lincoln~Hall * * *|||
 c2- [Bc-]2 [Ac-]2 [Gc]2 | [FAc]2 [FAc]2 [FAc]2 [FAc]2 | [EGBc]2 [EGBc]2 [EGBc]2 c2 | e4 d4 | %7
w: ||||
 [CEc]6 z2 | [EG]2 [D^F]2 [EG]2 [=FA]2 | [GB]2 [^FA]2 [GB]4 | [FA]2 [EG]2 [FA]2 [GB]2 | %11
w: ||||
 [Ac]2 [_A=B]2 [=Ac]4 | [FBd]2 [FAc]2 [GBce]2 [Acf]2 |[M:5/4] [ceg]2 [cfa]2 [dfb]6 | %14
w: |||
[M:4/4] [CFA]2 [CF]2 [B,EG]4 | [A,CF]6 z2 |[M:6/8] c3 d3 | .A6 | E3 c3 | c6 | %20
w: ||||||
 [GB][GB][GB] [GB][FA][EG] | [_Ad]2 [A=B] [=Ac]3 | e2 G d3 | c6 | c3 d3 | .A6 | d3 A3 | B6 | %28
w: ||||||||
 GAB cde |[M:7/8] [Af]2 A B3 d |[M:3/4] A3 [EG]3 | F6 |] %32
w: ||||
V:2
 C2 F,2 F,2 A,2 | G,2 C,2 z2 E2 | F,4 F,4 | z2 D2 C2 B,2 | C2 F,2 F,2 A,2 | %5
 G,2 C,2 z2[K:treble] [EGB]2 | [G,CG]4 [G,=B,F]4 | C,6 z2 | C,2 C2 C2 C2 | C,2 C2 C2 C2 | %10
 F,2 C2 C2 C2 | F,2[K:treble] C2 C2 C2 | D2 C2[K:bass] B,2 A,2 |[M:5/4] G,2 F,2 D,6 | %14
[M:4/4] z2 A,2 C,4 | F,6 z2 |[M:6/8][K:treble] z FF z FF | z CC C[K:bass][G,A,C][F,A,C] | %18
 z B,B,[K:treble] z [EG][EG] | z EF GFE | [C,C][C,C][C,C] [C,C][C,C][C,C] | [F,=B,]2 [F,D] [F,C]3 | %22
 G2 E [G,=B,F]3 | z DC B,CB, | z FF z FF | z CC C[K:bass][G,A,C][F,A,C] | %26
 z[K:treble] [D^F][DF][K:bass] z DD | G,G,,B,, [D,D][K:treble][G,D][B,D] | %28
 [CE][CEF][CEG] [CA][CB][Cc] |[M:7/8][K:bass] [F,C]2 [F,_EF][K:treble] [B,DF]3 [B,FB] | %30
[M:3/4] [CF]3[K:bass] [C,B,]3 | [F,A,]6 |] %32
V:3
 x8 | z4 C,4 | x8 | C,8 | x8 | z4 C,4[K:treble] | x8 | x8 | x8 | x8 | x8 | x2[K:treble] x6 | %12
 x4[K:bass] x4 |[M:5/4] x10 |[M:4/4] C,4 z4 | x8 |[M:6/8][K:treble] C3 D3 | .A,6[K:bass] | %18
 E,3[K:treble] C3 | C6 | x6 | x6 | [G,C]3 z3 | C,6 | C3 D3 | .A,6[K:bass] | %26
 D,3[K:treble][K:bass] ^F,3 | x4[K:treble] x2 | x6 |[M:7/8][K:bass] x3[K:treble] x4 | %30
[M:3/4] x3[K:bass] x3 | x6 |] %32
V:4
 x8 | x8 | x8 | [CE]2 z2 z4 | x8 | x8 | x8 | x8 | x8 | x8 | x8 | x8 | x8 |[M:5/4] x10 |[M:4/4] x8 | %15
 x8 |[M:6/8] z AA z AA | z FF FGF | z CC z BB | z GA BAG | x6 | x6 | x6 | [CE]BA GAG | z AA z AA | %25
 z FF FGF | z AA z ^FF | z [DG][DG] GGG | x6 |[M:7/8] x7 |[M:3/4] x6 | x6 |] %32

